X: 11925
T: Empty Barrell, The
R: jig
M: 6/8
K: Bminor
|:BDF BDF|BAB dcd|fcA fcA|gfg edc|
BDF BDF|BAB dcd|fcA edc|1 BAc B2A:|2 Bdc B2f||
|:geB Geg|fdB FDF|ece ecG|dBF dBf|
geB Geg|fdB Fed|~f3 edc|1 BAc B2 d:|2 BAc B3||

